dist/svgs/carbon-icons/svg/watson.svg

<svg xmlns="http://www.w3.org/2000/svg" viewBox="0 0 24 22"><path d="M16.3 5.9c-2-1.1-4.3-1.5-6.5-.9-.3.1-.5.5-.4.8.1.3.4.5.8.4 1-.3 2.1-.3 3.1-.1-1.6.8-3.4 2.7-4.9 5.2-.5.9-1 1.9-1.3 2.9-.4-.4-.7-.8-1-1.2-.8-1.3-.9-2.4-.5-3.2.5-.8 1.6-1.3 3.2-1.2.3 0 .6-.3.7-.6 0-.3-.3-.6-.6-.7-2.1-.2-3.6.5-4.4 1.8-.7 1.2-.5 2.8.5 4.4.4.7 1 1.3 1.6 2-.1.5-.2 1-.3 1.4V18c-.7-.9-1.2-1.9-1.5-3-.1-.3-.4-.5-.8-.5-.3.1-.5.4-.5.8.6 2.3 2 4.3 4.1 5.5C9 21.6 10.5 22 12 22c3 0 5.9-1.5 7.5-4.3 2.4-4.1.9-9.4-3.2-11.8zm-6.9 6c2.2-3.8 5-5.6 6.2-4.9 3.5 2 4.7 6.6 2.7 10.1-1 1.7-4.8 1.5-8.3-.5-.8-.4-1.5-1-2.1-1.5.5-1 .9-2.1 1.5-3.2zm-1.1 7.9c-.6-.3-.9-1.3-.7-2.7 0-.2.1-.4.1-.6l1.8 1.2c2.1 1.2 4.2 1.8 6 1.8h.6c-2.2 1.5-5.3 1.7-7.8.3zM3.2 7.6L.9 6.3c-.3-.2-.6-.1-.8.2-.2.3-.1.7.2.8l2.3 1.3c.1.1.2.1.3.1.2 0 .4-.1.5-.3.2-.3.1-.7-.2-.8zM12 3.5c.3 0 .6-.3.6-.6V.6c0-.3-.3-.6-.6-.6s-.6.3-.6.6v2.2c0 .4.3.7.6.7zm5 1.3c.1.1.2.1.3.1.2 0 .4-.1.5-.3l1.2-2c.2-.3.1-.7-.2-.8-.3-.2-.7-.1-.9.2l-1.2 2c-.1.2 0 .6.3.8zm-10 0c-.1 0-.2.1-.3.1-.2 0-.4-.1-.5-.3L5 2.6c-.1-.3 0-.7.3-.9.3-.2.7-.1.9.2l1.2 2c0 .3-.1.7-.4.9zm16.9 1.7c-.2-.3-.6-.4-.9-.2l-2.3 1.3c-.3.2-.4.6-.2.9.1.2.3.3.5.3.1 0 .2 0 .3-.1l2.3-1.3c.4-.2.5-.6.3-.9z"/></svg>

<svg version="1.1" id="Layer_1" xmlns="http://www.w3.org/2000/svg" xmlns:xlink="http://www.w3.org/1999/xlink" x="0px" y="0px"
	 width="24px" height="22px" viewBox="0 0 24 22" style="enable-background:new 0 0 24 22;" xml:space="preserve">
<g>
	<path d="M16.3,5.9C16.3,5.9,16.3,5.9,16.3,5.9C14.3,4.8,12,4.4,9.8,5C9.5,5.1,9.3,5.5,9.4,5.8c0.1,0.3,0.4,0.5,0.8,0.4
		c1-0.3,2.1-0.3,3.1-0.1c-1.6,0.8-3.4,2.7-4.9,5.2c-0.5,0.9-1,1.9-1.3,2.9c-0.4-0.4-0.7-0.8-1-1.2c-0.8-1.3-0.9-2.4-0.5-3.2
		c0.5-0.8,1.6-1.3,3.2-1.2c0.3,0,0.6-0.3,0.7-0.6c0-0.3-0.3-0.6-0.6-0.7C6.8,7.1,5.3,7.8,4.5,9.1C3.8,10.3,4,11.9,5,13.5
		c0.4,0.7,1,1.3,1.6,2c-0.1,0.5-0.2,1-0.3,1.4c0,0.4,0,0.8,0,1.1c-0.7-0.9-1.2-1.9-1.5-3c-0.1-0.3-0.4-0.5-0.8-0.5
		c-0.3,0.1-0.5,0.4-0.5,0.8c0.6,2.3,2,4.3,4.1,5.5C9,21.6,10.5,22,12,22c3,0,5.9-1.5,7.5-4.3c0,0,0,0,0,0c0,0,0,0,0,0
		C21.9,13.6,20.4,8.3,16.3,5.9z M9.4,11.9c2.2-3.8,5-5.6,6.2-4.9c0,0,0,0,0,0c3.5,2,4.7,6.6,2.7,10.1c0,0,0,0,0,0
		c-1,1.7-4.8,1.5-8.3-0.5c-0.8-0.4-1.5-1-2.1-1.5C8.4,14.1,8.8,13,9.4,11.9z M8.3,19.8C8.3,19.8,8.3,19.8,8.3,19.8
		c-0.6-0.3-0.9-1.3-0.7-2.7c0-0.2,0.1-0.4,0.1-0.6c0.6,0.4,1.2,0.8,1.8,1.2c2.1,1.2,4.2,1.8,6,1.8c0.2,0,0.4,0,0.6,0
		C13.9,21,10.8,21.2,8.3,19.8z"/>
	<path d="M3.2,7.6L0.9,6.3C0.6,6.1,0.3,6.2,0.1,6.5C-0.1,6.8,0,7.2,0.3,7.3l2.3,1.3c0.1,0.1,0.2,0.1,0.3,0.1c0.2,0,0.4-0.1,0.5-0.3
		C3.6,8.1,3.5,7.7,3.2,7.6z"/>
	<path d="M12,3.5c0.3,0,0.6-0.3,0.6-0.6V0.6C12.6,0.3,12.3,0,12,0c-0.3,0-0.6,0.3-0.6,0.6v2.2C11.4,3.2,11.7,3.5,12,3.5z"/>
	<path d="M17,4.8c0.1,0.1,0.2,0.1,0.3,0.1c0.2,0,0.4-0.1,0.5-0.3l1.2-2c0.2-0.3,0.1-0.7-0.2-0.8c-0.3-0.2-0.7-0.1-0.9,0.2l-1.2,2
		C16.6,4.2,16.7,4.6,17,4.8z"/>
	<path d="M7,4.8C6.9,4.8,6.8,4.9,6.7,4.9c-0.2,0-0.4-0.1-0.5-0.3L5,2.6C4.9,2.3,5,1.9,5.3,1.7c0.3-0.2,0.7-0.1,0.9,0.2l1.2,2
		C7.4,4.2,7.3,4.6,7,4.8z"/>
	<path d="M23.9,6.5c-0.2-0.3-0.6-0.4-0.9-0.2l-2.3,1.3c-0.3,0.2-0.4,0.6-0.2,0.9c0.1,0.2,0.3,0.3,0.5,0.3c0.1,0,0.2,0,0.3-0.1
		l2.3-1.3C24,7.2,24.1,6.8,23.9,6.5z"/>
</g>
</svg>
